X: 25595
T: Marnix' Tune
R: jig
M: 6/8
K: Dmajor
|:FBB dc(B|B) AF ABd|~F3 dcB|AEE DEE|AFA ABd|
F2B dc(B|B) AF ABd|cAA eAA|1 cAc d2B:|2 AFA cde||
|:fBB dB(e|e)de aga|fAA a2g|~e3 e2c|~f3 d2B|
GBB dBB|1 cAA eAA|fAA a2g:|2 cAA fAA|gAA a2g||

